X:63
T:A pocky Concetto indeede.
T:John Malchair's Third Collection of Tunes
%%VWML:Malchair-3619-p63
F:https://www.vwml.org/record/Malchair/3619/p63
F:www.vwml.org/topics/historic-dance-and-tune-books/Malchair
Z:Eric Conrad Feb 2020
M:C
L:1/8
K:Gmin
D | G>G A>F B<G c>A | d<B A>G G3 || \
g | f<d e>c d<B c>A | B<G A<F B3B | c<A d>A ^F<D B>c | d<B c<A G3 |]
W:% Using this W: as a space between tunes
T:Kemp's Jeg.
T:John Malchair's Third Collection of Tunes
F:https://www.vwml.org/record/Malchair/3619/p63
F:www.vwml.org/topics/historic-dance-and-tune-books/Malchair
% Z:Eric Conrad Feb 2020
% older notation - half notes in MS are stemless black notes.
M:C % Barred as 6/4 but marked as common time in MS
L:1/4
K:Dmix
g | g>ag efg | f>ef def | gab aba | f3 d2 ||
A | _B3 c3 | d3- d2A | _B3 c3 | d3- d2A |
BAB cBc | ded d3/2 c/ B/ c/ | A2G G^F2 | G3- G2 |]
W:% Using this W: as a space between tunes
T:Lady Spellor
T:John Malchair's Third Collection of Tunes
F:https://www.vwml.org/record/Malchair/3619/p63
F:www.vwml.org/topics/historic-dance-and-tune-books/Malchair
% Z:Eric Conrad Feb 2020
% older notation - half notes in MS are stemless black notes.
M:C % Barred as 6/4 but marked as common time in MS
L:1/4
K:Gmix
d2d d2d | d3 B3 | c2B c2d | e3 B3 |
A2A A2B | c2d e2f | g2d e2d | B3 G3 |]
W:% Using this W: as a space between tunes
T:Millison's Jegg. 1665.
T:John Malchair's Third Collection of Tunes
%%VWML:Malchair-3619-p63
F:https://www.vwml.org/record/Malchair/3619/p63
F:www.vwml.org/topics/historic-dance-and-tune-books/Malchair
% Z:Eric Conrad Feb 2020
% older notation - half notes in MS are stemless black notes.
% accidentals in the A part are markrd below the line
% the last measure of the A strain is short by 3/8 (stem added in error?).
M:6/4 % Barred as 6/4 but marked as common time in MS
L:1/4
K:Ddor
a | a>gf e2d | ^c2d e2a | a>gf e2d | ^c3/2 d2 ||
A | AcA AcA | AcA c2c | dfd dfd | dfd f2f |
ege ege | ege g2a | a>gf e2d | ^c3 d2 |]


